X: 1
T: Kelsen Side
R: march
M: 4/4
L: 1/8
K: Gmaj
G2 BG A2 Bc|d2 g2 fe dB|cB AF G2 GF|G6 z2|
a3 f d2 ef|g2 a2 ba gd|c2 B2 cd ec|A6 z2|
a3 f d2 ef|g2 a2 ba gd|c2 B2 cd ec|A6 d2|
G2 BG A2 Bc|d2 g2 fe dB|cB AF G2 GF|G6 z2||

